svgs/spotube.svg

<svg width="192" height="192" viewBox="0 0 192 192" fill="none" xmlns="http://www.w3.org/2000/svg">
<path d="M73.3166 154.041V103.469C73.3166 100.183 70.6528 97.5188 67.3668 97.5188C64.0809 97.5188 61.4171 100.183 61.4171 103.469V154.041C61.4171 157.327 64.0809 159.991 67.3668 159.991C70.6528 159.991 73.3166 157.327 73.3166 154.041Z" stroke="black" stroke-width="8"/>
<path d="M129.839 154.041V103.469C129.839 100.183 127.175 97.5188 123.889 97.5188C120.603 97.5188 117.94 100.183 117.94 103.469V154.041C117.94 157.327 120.603 159.991 123.889 159.991C127.175 159.991 129.839 157.327 129.839 154.041Z" stroke="black" stroke-width="8"/>
<path d="M48.0301 99.0063V157.504C48.0301 158.056 47.5824 158.504 47.0301 158.504H31C26.0294 158.504 22 154.474 22 149.504V110.162C22 102.357 25.3847 96.5828 32.1542 96.0687C32.7049 96.0269 33.1553 95.5562 33.162 95.004C34.1691 11.6076 157.814 13.0592 158.838 95.0051C158.845 95.5573 159.295 96.0265 159.845 96.0732C166.615 96.6478 170 103.066 170 110.162V149.504C170 154.474 165.971 158.504 161 158.504H144.226C143.674 158.504 143.226 158.056 143.226 157.504V99.0063C143.226 38.0213 48.0301 37.2776 48.0301 99.0063Z" stroke="black" stroke-width="12" stroke-linecap="round"/>
</svg>

<svg width="192" height="192" viewBox="0 0 192 192" fill="none" xmlns="http://www.w3.org/2000/svg"><path d="M73.317 154.041v-50.572a5.95 5.95 0 1 0-11.9 0v50.572a5.95 5.95 0 1 0 11.9 0ZM129.839 154.041v-50.572a5.95 5.95 0 0 0-11.899 0v50.572a5.95 5.95 0 1 0 11.899 0Z" stroke="#000" stroke-width="8"/><path d="M48.03 99.006v58.498a1 1 0 0 1-1 1H31a9 9 0 0 1-9-9v-39.342c0-7.805 3.385-13.58 10.154-14.093a1.1 1.1 0 0 0 1.008-1.065c1.007-83.396 124.652-81.945 125.676.001a1.107 1.107 0 0 0 1.007 1.068c6.77.575 10.155 6.993 10.155 14.089v39.342a9 9 0 0 1-9 9h-16.774a1 1 0 0 1-1-1V99.006c0-60.985-95.196-61.728-95.196 0Z" stroke="#000" stroke-width="12" stroke-linecap="round"/></svg>
